X:1
T:T
T:Je connois la bonne jeunesse / Air de Lisbeth
T:Lied / HS.81.Vanpelt.301
T:Een speelmansboek uit Maastricht/Tongeren (1786-1824) 
T:BRON: Lusthof-der-muziek.blogspot.com: Handschrift van VanPelt (1786-1824)  / Transcriptie door Ad Kwakernaat (2015) 
T:Naar een origineel van Grétry André-Ernest-Modeste (1741-1813) 
T:Genoteerd door Van der Elst Johan
T:Genoteerd door Van der Elst Johan
Z:Een speelmansboek uit Maastricht/Tongeren (1786-1824)
Z:Genoteerd door Van der Elst Johan
L:1/8
Q:1/4=116
M:2/4
K:A
V:1 treble nm="Viool" snm="Vl."
V:1
"^Allegretto" A3 E | c3 A | e2 ee | e>d c z/ A/ | c2 e2 | A2 c2 | FB df | A2 G2 | ed Bc | A2 B2 | %10
 c3{e} d | cB B2 | ed Bc | A2 B2 | c2 ^d2 | e4 | z2 z E | A3 E | B3 E | c3 c | d>B B2 | e z fe | %22
 e a2 e | e>d dc | c2 B z/ E/ | A3 E | B3 E | c3 A | e/d/c/d/ B2 | e2 fe | e a2 e | ed dc | %32
{c} B2 z2 | z e ^df | e/g/f/e/ ^d/c/B/A/ | GB z2 | z e ^df | e/g/f/e/ ^d/c/B/A/ | G2 z2 | z e ^df | %40
 e/g/f/e/ ^d/c/B/A/ | GB z2 | z g2 e | e c2 A | Ac B^d | e2 z2 | e3 e | f d2 d | c2 cc | eB B2 | %50
 A3 E | c3 A | e2 ee | e>d c z/ A/ | c2 e2 | A2 c2 | FB df | A2 G2 | ed Bc | A3 B | c3{e} d | %61
 cB B2 | ed Bc | A2 B2 | c2 ^d2 | e4 | ed dc | cB BA | Ac ce | e4 | e4 | e4 | e2 z e | c4 | %74
 c3 B/c/ | d z/ f/ e/d/c/B/ | A2 G>e | e>A d>f | e>c B>e | e>c d>f | e3 e | ^d3 f | e2 ^d>f | %83
 e2 ^df | !fermata!e2 ^d=d | c4 | c3 B/c/ | d z/ f/ e/d/c/B/ | A2 G>e | %89
"_BRON: Alamire uitgave \"Speelmansboek uit Maastricht\" \nvermeldt bij concordatie:\n              Grétry André-Ernest-Modeste (1741-1813), \nLisbeth \n(1797)\n" e>A d>f | %90
 e>c B>e | eA d>f | e4 | e4 | e3 e | A2 z2 |] %96

